X:1
T:Give Thanks
T:Give Thanks
T:Unknown Composer
T:Shaker Hymnal, 1906
T:Public Domain, Courtesy of the Cyber Hymnal™
T:Public Domain, Courtesy of the Cyber Hymnal™
T:Public Domain, Courtesy of the Cyber Hymnal™
C:Unknown Composer
Z:Public Domain,
Z:Courtesy of the Cyber Hymnal™
%%score ( 1 2 ) ( 3 4 )
L:1/8
M:4/4
K:E
V:1 treble 
V:2 treble 
V:3 bass 
V:4 bass 
V:1
 [B,E]2 [EG]2 [FB]3 [EB] | [Ec][EB][Ec][Ad] [Ge]3 [Ge] | (z [Ac]2) [EGB]2 [E^Ac][EAc] x | %3
w: O give thanks, give|thanks un- to the Lord, for|* He is good,|
 [FBd]2 [GBe][FBd] [FBd]2 [E^Ac][DB] | c4 (G^AG) [DFB]2 B,2 | B,2 (CD) E3 D | D2 C2 B,3 C | %7
w: and His mer- cy en- dur-|eth for- * * ev- er.|To Him * which led|His peo- ple through|
 B,3 A, G,3 [Ge] | (z [Ac]2) [EGB]2 [E^Ac][EAc] x | [FBd]2 [GBe][FBd] [FBd]2 [E^Ac][DB] | %10
w: the wil- der- ness,|* For He is|good, and His mer- cy en-|
 c4 (G^AG) [DFB]2 z2 | z4 z3 E | E[EG][EG][EB] ([GB][Ae]) [EAe]2 | B2 B2 c4 | %14
w: dur- eth * * for-|ev-|er. in- to a stand- * ing|wa- ter, and|
 [EAc][EAc][FAB][DAB] [EGB]4 | [B,G]2 [EG]2 [CA]3 [B,G] | ([B,G]2 [A,F]2) [G,E]4 | %17
w: dry ground in- to wa-|ter springs. Stength- en|ye * the|
 [G,E]3 [G,E] [A,F]2 [^A,=G]2 | [B,G]2 [A,F]2 [G,E]4 | E3 E D2 EE | FFFG E2 [E^A]2 | %21
w: weak hands and con-|firm the fee-|ble knees, say to them|that are of a fear- ful|
 [DB]4 [Ec]2 [EF][EF] | [EB]3 E A2 [FA]2 | [EG]3 [EB] ^A2 [DB][Ec] | [DB]3 [DB] [DB]4 || %25
w: heart, Be strong, fear|not, be- hold your|God will come, will come|with a re-|
[M:3/4] [EG]2 [EG]2 [DFB]2 | [CGe]2 [C^Ae]2 [B,Bd]2 | [Ac]4 [DAc]2 | [DAc]2 [EGB]2 [EGB][EAc] | %29
w: com- pense. Then|shall the eyes|of the|blind be op- ened|
 ([^EGB]2 A2) [B,DFA][B,DFB] | (A2 G2) [B,EGB][B,EGB] | [A,EAc]4 [CFA]2 | [B,EG]2 [B,DF]2 z2 || %33
w: and * the ears|of * the deaf,|of the|deaf un-|
[M:4/4] [EGB][EGB][EGB][EGB] [DFB][B,AB] [EGB]B/B/ | ([Ge][Fd]) ([Ec][DB]) ([DB][C^A])[DB][EG] | %35
w: stop- ped. And a high- way shall be there,|and * it * shall * be call-|
 [DF]2 (G^A) ([DB][Ec]) ([Fd][Ge]) | [Fd]2 [Ec]2 [DB]3 [EGB] | [DFB][DFB][DFB][DFB] [EGB]4 | %38
w: èd the * way, * the *|way of ho- li-|ness The un- clean shall|
 [DFB]2 [DFB]2 [EGB]3 [EGB] | [FAB][FAB][FAB][FAB] [EGB]4 | [DFB]2 [DFB]2 [EGB][GB][GB][GB] | %41
w: not pass o- ver|it, the un- clean shall|not pass o- ver it, But|
 [FA][DF][EG][FA] [EG][GB][Ac][Ad] | [Ge]2 [Ge]>[Bd] [Bd][Ac][GB][Ac] | %43
w: the re- deem- èd of the Lord shall|walk there- in; And the ran- somed|
 [GB]2 [EG][EG] [DF][EG][FA][GB] | [Ac] [Ac]2 [EAc] [AB]2 [DAB][B,AB] | %45
w: of the Lord shall re- turn and|come to Zi- on, To Zi-|
 [EGB]2 [EGB]2 [Ec][Ec][Fc][Fc] | [FB][FB][FB][FA] [EG][GB][Ac][Ad] | %47
w: on with songs and ev- er-|last- ing joy up- on their heads, they|
 [Ge]2 [Bd]>[Ac] [Ac] [GB]2 [EGB] | ([EAc]2 [C^EG]2) [CFA]2 [C=E^A]2 | %49
w: shall ob- tain joy and glad-|ness, * and sor-|
 ([B,DB]2 [^B,DFA]2) [CEG]2 [Ec]2 | [EB]4 [DAB]4 | [EGe]8 |] %52
w: row * and sigh-|ing shall|flee|
V:2
 x8 | x8 | ([Bd]2 B,) (C D) x3 | x8 | ([E-B] E3) x7 | x8 | x8 | x8 | ([Bd]2 B,) (C D) x3 | x8 | %10
 ([E-B] E3) x7 | x8 | x3 E2 x3 | x8 | x8 | x8 | x8 | x8 | x8 | x8 | x8 | x8 | x4 (DE) x2 | %23
 x4 (FE) x2 | x8 ||[M:3/4] x6 | x6 | (A,2 C2) x2 | x6 | B,4 (F=E) | [B,E]4 x2 | x6 | x6 || %33
[M:4/4] x8 | x8 | x2 E2 x4 | x8 | x8 | x8 | x8 | x8 | x8 | x8 | x8 | x4 (DC) x2 | x8 | x8 | x8 | %48
 x8 | x8 | x8 | x8 |] %52
V:3
 [E,G,]2 [E,B,]2 [D,B,]3 [G,B,] | A,[G,B,]A,[F,B,] [E,B,]3 z | z8 | z8 | z8 x3 | z2 z A, G,3 B, | %6
w: ~ ~ ~ ~|~ ~ ~ ~ ~||||To Him which|
 B,2 A,2 G,3 A, | G,B,,C,D, E,3 z | z8 | z8 | z4 z2 z B, x3 | B,2 G,>F, F,E,E,G, | %12
w: led his peo- ple|through the wil- der- ness,|||He|turn- èd the wil- der- ness in-|
 G,B,B,=D (DC) C2 | B,2 B,2 C4 | [A,C][A,C][F,D][B,,B,] [E,B,]4 | z8 | z8 | z8 | z8 | %19
w: to a stand- ing wa- * ter,|and dry ground|in- to wa- ter springs.|||||
 G,3 G, F,2 G,G, | A,A,A,B, G,2 [F,C]2 | [B,,B,]4 A,2 [A,C][A,C] | [G,B,]3 [G,B,] B,2 B,2 | %23
w: ||||
 [E,B,]3 [G,B,] [F,C]2 [F,B,][F,^A,] | [B,,B,]3 [B,,B,] [B,,B,]4 ||[M:3/4] z6 | z6 | z6 | z6 | z6 | %30
w: |||||||
 z6 | z6 | z6 ||[M:4/4] [E,B,][E,B,][E,B,][E,B,] [F,A,][B,,A,][E,B,] z | z8 | %35
w: |||||
 z2 (B,C) [F,B,]2 B,2 | [F,B,]2 [=G,^A,]2 [^G,B,]3 [G,B,] | [A,B,][A,B,][A,B,][A,B,] [G,B,]4 | %38
w: |||
 [A,B,]2 [A,B,]2 [G,B,]3 [E,B,] | [B,,B,][D,B,][F,B,][A,B,] B,4 | [A,B,]2 [A,B,]2 [G,B,] z z2 | %41
w: |||
 z8 | z8 | z8 | z3 z3 z2 | z2 B,2 A,[G,B,][F,A,][E,G,] | [D,F,][B,,D,][C,E,][D,B,] [E,B,] z z2 | %47
w: ||||||
 z8 | z8 | z4 z2 [A,,A,]2 | [B,,G,]4 (F,2 B,2) | [E,B,]8 |] %52
w: |||||
V:4
 x8 | x8 | x8 | x8 | x11 | x8 | x8 | x8 | x8 | x8 | x11 | x8 | x8 | x8 | x8 | x8 | x8 | x8 | x8 | %19
 x8 | x8 | x8 | x4 (F,E,) (D,B,,) | x8 | x8 ||[M:3/4] x6 | x6 | x6 | x6 | x6 | x6 | x6 | x6 || %33
[M:4/4] x8 | x8 | x2 E,2 x (F,E,) x | x8 | x8 | x8 | x4 G,2 E,2 | x8 | x8 | x8 | x8 | x8 | x8 | %46
 x8 | x8 | x8 | x8 | x4 B,,4 | x8 |] %52

